svgs/light/pager.svg

<svg xmlns="http://www.w3.org/2000/svg" viewBox="0 0 512 512"><!-- Font Awesome Pro 6.0.0-alpha2 by @fontawesome - https://fontawesome.com License - https://fontawesome.com/license (Commercial License) --><path d="M208 352H272C280.844 352 288 344.844 288 336S280.844 320 272 320H208C199.156 320 192 327.156 192 336S199.156 352 208 352ZM80 352H144C152.844 352 160 344.844 160 336S152.844 320 144 320H80C71.156 320 64 327.156 64 336S71.156 352 80 352ZM448 64H64C28.625 64 0 92.625 0 128V384C0 419.375 28.625 448 64 448H448C483.375 448 512 419.375 512 384V128C512 92.625 483.375 64 448 64ZM480 384C480 401.625 465.625 416 448 416H64C46.375 416 32 401.625 32 384V256H480V384ZM480 224H32V128C32 110.375 46.375 96 64 96H448C465.625 96 480 110.375 480 128V224Z"/></svg>

<svg xmlns="http://www.w3.org/2000/svg" viewBox="0 0 512 512"><!--! Font Awesome Pro 6.4.0 by @fontawesome - https://fontawesome.com License - https://fontawesome.com/license (Commercial License) Copyright 2023 Fonticons, Inc. --><path d="M448 96c17.7 0 32 14.3 32 32V384c0 17.7-14.3 32-32 32H64c-17.7 0-32-14.3-32-32V128c0-17.7 14.3-32 32-32H448zM64 64C28.7 64 0 92.7 0 128V384c0 35.3 28.7 64 64 64H448c35.3 0 64-28.7 64-64V128c0-35.3-28.7-64-64-64H64zm0 272c0 8.8 7.2 16 16 16h64c8.8 0 16-7.2 16-16s-7.2-16-16-16H80c-8.8 0-16 7.2-16 16zm128 0c0 8.8 7.2 16 16 16h64c8.8 0 16-7.2 16-16s-7.2-16-16-16H208c-8.8 0-16 7.2-16 16zM96 160H416v96H96l0-96zm-32 0v96c0 17.7 14.3 32 32 32H416c17.7 0 32-14.3 32-32V160c0-17.7-14.3-32-32-32H96c-17.7 0-32 14.3-32 32z"/></svg>
